X:1
T:The Weaver and His Wife
C:Andrew Rankine
S:Jim Paterson
Z:Jack Campin <http://www.purr.demon.co.uk/jack/> 2004
M:6/8
L:1/8
Q:3/8=120
K:A
c|E2E EAB|c3  A3|c3  A2c|edc B3 |
  E2E EBc|d3  B3|E2e dcB|A3  A2:|
c|EAc e3 |EAe c3|EAc edc|d3  B2c|
  ded BdB|G3  F3|E2e dcB|A3  A2:|
